src/assets/icons/konnectors/materiel_net.svg

<svg xmlns="http://www.w3.org/2000/svg" width="296" height="57" viewBox="0 0 296 57" xmlns:xlink="http://www.w3.org/1999/xlink">
  <defs>
    <path id="a" d="M33.9942819,56.7934978 C32.3405857,56.9075458 29.6679688,56.9140625 27.9994225,56.8064144 L3.0005775,55.1935856 C1.34340431,55.0866712 0,53.6659433 0,51.9934141 L0,15.0065859 C0,13.3460944 1.25363147,11.5147233 2.80571841,10.9139155 L28.1942816,1.08608454 C29.7438371,0.486256614 32.2460938,0.515625 33.7806419,1.15061045 L57.2193581,10.8493896 C58.7550642,11.4848542 60,13.3340567 60,15.0065859 L60,51.9934141 C60,53.6539056 58.6594313,55.092453 57.0057181,55.2065022 L33.9942819,56.7934978 Z"/>
    <mask id="b" width="60" height="57" x="0" y="0" fill="#D2312D">
      <use xlink:href="#a"/>
    </mask>
  </defs>
  <g fill="none" fill-rule="evenodd">
    <path fill="#FFFFFF" d="M78.88 43L82.752 43 82.752 27 89.76 37.496 89.888 37.496 96.96 26.936 96.96 43 100.896 43 100.896 20.6 96.704 20.6 89.888 31.192 83.072 20.6 78.88 20.6 78.88 43zM102.736 43L106.768 43 109.072 37.592 119.664 37.592 121.936 43 126.096 43 116.24 20.44 112.592 20.44 102.736 43zM110.512 34.104L114.352 25.144 118.224 34.104 110.512 34.104zM130.56 43L134.528 43 134.528 24.248 141.632 24.248 141.632 20.6 123.456 20.6 123.456 24.248 130.56 24.248 130.56 43zM143.792 43L160.56 43 160.56 39.48 147.728 39.48 147.728 33.464 158.96 33.464 158.96 29.944 147.728 29.944 147.728 24.12 160.4 24.12 160.4 20.6 143.792 20.6 143.792 43zM163.232 43L167.168 43 167.168 35.192 172.096 35.192 177.6 43 182.272 43 176.224 34.52C179.328 33.624 181.536 31.416 181.536 27.736L181.536 27.672C181.536 25.72 180.864 24.056 179.68 22.84 178.24 21.432 176.032 20.6 173.216 20.6L163.232 20.6 163.232 43zM167.168 31.704L167.168 24.184 172.896 24.184C175.808 24.184 177.536 25.496 177.536 27.896L177.536 27.96C177.536 30.232 175.744 31.704 172.928 31.704L167.168 31.704zM184.592 43L188.528 43 188.528 20.6 184.592 20.6 184.592 43zM192.512 43L209.28 43 209.28 39.48 196.448 39.48 196.448 33.464 207.68 33.464 207.68 29.944 196.448 29.944 196.448 24.12 209.12 24.12 209.12 20.6 192.512 20.6 192.512 43zM211.952 43L227.664 43 227.664 39.416 215.888 39.416 215.888 20.6 211.952 20.6 211.952 43zM229.056 43L233.312 43 233.312 38.584 229.056 38.584 229.056 43zM236.368 43L240.24 43 240.24 27.064 252.592 43 255.888 43 255.888 20.6 252.016 20.6 252.016 36.088 240.016 20.6 236.368 20.6 236.368 43zM259.648 43L276.416 43 276.416 39.48 263.584 39.48 263.584 33.464 274.816 33.464 274.816 29.944 263.584 29.944 263.584 24.12 276.256 24.12 276.256 20.6 259.648 20.6 259.648 43zM284.592 43L288.56 43 288.56 24.248 295.664 24.248 295.664 20.6 277.488 20.6 277.488 24.248 284.592 24.248 284.592 43zM33.9964905 56.1137351C32.3415745 56.2319434 29.6526814 56.2379489 28.0138073 56.1286906L3.9861927 54.5268496C2.33696401 54.4169011 1 52.9869368 1 51.3295534L1 16.3259869C1 14.6701175 2.25086829 12.8274228 3.78195768 12.2149871L28.2180423 2.44055321C29.7544751 1.82598009 32.2392536 1.85887881 33.7613771 2.51121746L56.2386229 12.1443228C57.7636894 12.7979227 59 14.6686035 59 16.3259869L59 51.3295534C59 52.9854228 57.6683385 54.4228888 56.0035095 54.5418052L33.9964905 56.1137351z"/>
    <path stroke="#D2312D" stroke-width="2" d="M31,2 L31,56"/>
    <polygon fill="#D2312D" points="7 53 7 17 26 9 26 55"/>
    <polygon fill="#D2312D" points="36 55 36 10 54 17 54 53"/>
    <use stroke="#000000" stroke-width="6" mask="url(#b)" stroke-linecap="round" stroke-linejoin="round" xlink:href="#a"/>
  </g>
</svg>

<svg xmlns="http://www.w3.org/2000/svg" width="296" height="57" viewBox="0 0 296 57" xmlns:xlink="http://www.w3.org/1999/xlink">
  <defs>
    <path id="a" d="M33.9942819,56.7934978 C32.3405857,56.9075458 29.6679688,56.9140625 27.9994225,56.8064144 L3.0005775,55.1935856 C1.34340431,55.0866712 0,53.6659433 0,51.9934141 L0,15.0065859 C0,13.3460944 1.25363147,11.5147233 2.80571841,10.9139155 L28.1942816,1.08608454 C29.7438371,0.486256614 32.2460938,0.515625 33.7806419,1.15061045 L57.2193581,10.8493896 C58.7550642,11.4848542 60,13.3340567 60,15.0065859 L60,51.9934141 C60,53.6539056 58.6594313,55.092453 57.0057181,55.2065022 L33.9942819,56.7934978 Z"/>
    <mask id="b" width="60" height="57" x="0" y="0" fill="#D2312D">
      <use xlink:href="#a"/>
    </mask>
  </defs>
  <g fill="none" fill-rule="evenodd">
    <path  fill="#000000" d="M78.88,43l3.872,0l0,-16l7.008,10.496l0.128,0l7.072,-10.56l0,16.064l3.936,0l0,-22.4l-4.192,0l-6.816,10.592l-6.816,-10.592l-4.192,0l0,22.4Zm23.856,0l4.032,0l2.304,-5.408l10.592,0l2.272,5.408l4.16,0l-9.856,-22.56l-3.648,0l-9.856,22.56Zm7.776,-8.896l3.84,-8.96l3.872,8.96l-7.712,0Zm20.048,8.896l3.968,0l0,-18.752l7.104,0l0,-3.648l-18.176,0l0,3.648l7.104,0l0,18.752Zm13.232,0l16.768,0l0,-3.52l-12.832,0l0,-6.016l11.232,0l0,-3.52l-11.232,0l0,-5.824l12.672,0l0,-3.52l-16.608,0l0,22.4Zm19.44,0l3.936,0l0,-7.808l4.928,0l5.504,7.808l4.672,0l-6.048,-8.48c3.104,-0.896 5.312,-3.104 5.312,-6.784l0,-0.064c0,-1.952 -0.672,-3.616 -1.856,-4.832c-1.44,-1.408 -3.648,-2.24 -6.464,-2.24l-9.984,0l0,22.4Zm3.936,-11.296l0,-7.52l5.728,0c2.912,0 4.64,1.312 4.64,3.712l0,0.064c0,2.272 -1.792,3.744 -4.608,3.744l-5.76,0Zm17.424,11.296l3.936,0l0,-22.4l-3.936,0l0,22.4Zm7.92,0l16.768,0l0,-3.52l-12.832,0l0,-6.016l11.232,0l0,-3.52l-11.232,0l0,-5.824l12.672,0l0,-3.52l-16.608,0l0,22.4Zm19.44,0l15.712,0l0,-3.584l-11.776,0l0,-18.816l-3.936,0l0,22.4Zm17.104,0l4.256,0l0,-4.416l-4.256,0l0,4.416Zm7.312,0l3.872,0l0,-15.936l12.352,15.936l3.296,0l0,-22.4l-3.872,0l0,15.488l-12,-15.488l-3.648,0l0,22.4Zm23.28,0l16.768,0l0,-3.52l-12.832,0l0,-6.016l11.232,0l0,-3.52l-11.232,0l0,-5.824l12.672,0l0,-3.52l-16.608,0l0,22.4Zm24.944,0l3.968,0l0,-18.752l7.104,0l0,-3.648l-18.176,0l0,3.648l7.104,0l0,18.752Z"/>
    <path fill="#FFFFFF" d="M33.996,56.114c-1.654,0.118 -4.343,0.124 -5.982,0.015l-24.028,-1.602c-1.649,-0.11 -2.986,-1.54 -2.986,-3.197l0,-35.004c0,-1.656 1.251,-3.499 2.782,-4.111l24.436,-9.774c1.536,-0.615 4.021,-0.582 5.543,0.07l22.478,9.633c1.525,0.654 2.761,2.525 2.761,4.182l0,35.004c0,1.655 -1.332,3.093 -2.996,3.212l-22.008,1.572Z"/>
    <path stroke="#D2312D" stroke-width="2" d="M31,2 L31,56"/>
    <polygon fill="#D2312D" points="7 53 7 17 26 9 26 55"/>
    <polygon fill="#D2312D" points="36 55 36 10 54 17 54 53"/>
    <use stroke="#000000" stroke-width="6" mask="url(#b)" stroke-linecap="round" stroke-linejoin="round" xlink:href="#a"/>
  </g>
</svg>
